svg/fluentui-system-icons/ic_fluent_archive_24_regular.svg

<svg width="24" height="24" viewBox="0 0 24 24" fill="none" xmlns="http://www.w3.org/2000/svg">
<path d="M10.25 11C9.83579 11 9.5 11.3358 9.5 11.75C9.5 12.1642 9.83579 12.5 10.25 12.5H13.75C14.1642 12.5 14.5 12.1642 14.5 11.75C14.5 11.3358 14.1642 11 13.75 11H10.25ZM3 5.25C3 4.00736 4.00736 3 5.25 3H18.75C19.9926 3 21 4.00736 21 5.25V6.75C21 7.5301 20.603 8.21748 20 8.62111V17.25C20 19.3211 18.3211 21 16.25 21H7.75C5.67893 21 4 19.3211 4 17.25V8.62111C3.39701 8.21748 3 7.5301 3 6.75V5.25ZM5.5 9V17.25C5.5 18.4926 6.50736 19.5 7.75 19.5H16.25C17.4926 19.5 18.5 18.4926 18.5 17.25V9H5.5ZM5.25 4.5C4.83579 4.5 4.5 4.83579 4.5 5.25V6.75C4.5 7.16421 4.83579 7.5 5.25 7.5H18.75C19.1642 7.5 19.5 7.16421 19.5 6.75V5.25C19.5 4.83579 19.1642 4.5 18.75 4.5H5.25Z" fill="#212121"/>
</svg>

<svg xmlns="http://www.w3.org/2000/svg" width="24" height="24"><path d="M10.25 11a.75.75 0 0 0 0 1.5h3.5a.75.75 0 0 0 0-1.5h-3.5ZM3 5.25A2.25 2.25 0 0 1 5.25 3h13.5A2.25 2.25 0 0 1 21 5.25v1.5c0 .78-.397 1.467-1 1.871v8.629A3.75 3.75 0 0 1 16.25 21h-8.5A3.75 3.75 0 0 1 4 17.25V8.621A2.248 2.248 0 0 1 3 6.75v-1.5ZM5.5 9v8.25a2.25 2.25 0 0 0 2.25 2.25h8.5a2.25 2.25 0 0 0 2.25-2.25V9h-13Zm-.25-4.5a.75.75 0 0 0-.75.75v1.5c0 .414.336.75.75.75h13.5a.75.75 0 0 0 .75-.75v-1.5a.75.75 0 0 0-.75-.75H5.25Z"/></svg>
